X:955051
T:Top Gun
M:4/4
L:1/8
Q:1/4=120
K:Amaj
% %score {3}
V:M name="Melody" sname="Melody" " " gstem=up stem=down transpose=2
V:H name="Harmony" sname="Harmony" " " gstem=up stem=down transpose=2
V:C name="Bass" sname="Bass" " " gstem=up stem=down transpose=2
V:S clef=perc name="Snare" sname="Snare" middle=G " " gstem=up stem=down dyn=up stafflines=1 transpose=2
V:B clef=none name="Bass" sname="Bass" " " gstem=up stem=down dyn=up transpose=2
V:T clef=none name="Tenor" sname="Tenor" " " gstem=up stem=down dyn=up transpose=2
V:BB clef=bass octave=-1 transpose=-1 name="Brass Bass" sname="ABCD-C" " " gstem=up stem=down transpose=2
V:BC transpose=-1 name="Brass Chord" sname="ABCD-D" " " gstem=up stem=down transpose=2
V:BD transpose=-1 name="Brass Chord 2" sname="ABCD-B" " " gstem=up stem=down transpose=2
V:P octave=-1 name="Piano" " gstem=up stem=down transpose=2
V:Organ name="Organ" sname="Organ" " " transpose=2
V:BassG clef=bass octave=-2 name="Bass Guitar" sname="Bass Guitar" " " transpose=2
V:Guitar name="Guitar" sname="Guitar" " " transpose=2
V:Drums name="drums" sname="drums" " " 
%%MIDI channel 10
%%MIDI program 0
%%MIDI drummap F 36 %bass drum 1
%%MIDI drummap c 38 %acoustic snare
%%MIDI drummap ^D 44 %pedal hi-hat
%%MIDI drummap ^f 51 %ride cymbal 1
%%MIDI drummap ^g 42 %closed hi hat
%%MIDI drummap ^a 49 %crash cymbal 1
%%MIDI drummap ^b 52 %chinese cymbal
%%MIDI drummap e 50 %high tom
%%MIDI drummap d 48 %hi mid tom
%%MIDI drummap B 45 %low tom
%%MIDI drummap A 41 %low floor tom
%%MIDI Channel 10
%%MIDI gracedivider 40
%%MIDI beatstring 
%%MIDI vol 100
V:Organ
%%MIDI channel 1
%%MIDI program 19
%%MIDI vol 100
%%MIDI nobeataccents
% %score { Organ BassG }
[V:Organ] | X | X | X | X | $
[V:Organ][K:Amaj][EAc]8 | [FAd]8 | [EAc]4 [FAd]2 [EAc]2 | [EAc]2 [EGB]6 | 
[EAc]8 | [FAd]8 | [EAc]4 [FBd]2 [EAc]2 | [E=G=c]8 |]
[V:Organ][K:Amaj][EAc]8 | [FAd]8 | [EAc]4 [FAd]2 [EAc]2 | [EAc]2 [EGB]6 | 
[EAc]8 | [FAd]8 | [EAc]4 [FBd]2 [EAc]2 | [E=G=c]8 |]
[V:Organ] [K:Dmaj][Adf]8 | [Bdg]8 | [Adf]4 [Bdg]2 [Adf]2 | [Adf]2 [Ace]6 | 
[Adf]8 | [Beg]8 | [Adf]4 [Beg]2 [Adf]2 | [EAc]8 |
[V:Organ][K:Amaj][EAc]8 | [FAd]8 | [EAc]4 [FAd]2 [EAc]2 | [EAc]2 [EGB]6 | 
[EAc]8 | [FAd]8 | [EAc]4 [FBd]2 [EAc]2 | [EAc]8 |]
V:BassG
%%MIDI channel 15
%%MIDI program 20
[V:BassG] | X | X | X | X | $
[V:BassG] [K:Amaj][A]8 | [D]8 | [A]4 [D]2 [A]2 | [A]2 [E]6 | [A]8 | [D]8 | [A]4 [B]2 [A]2 | [=C]8 |]
[V:BassG] [K:Amaj][A]8 | [D]8 | [A]4 [D]2 [A]2 | [A]2 [E]6 | [A]8 | [D]8 | [A]4 [B]2 [A]2 | [=C]8 |]
[V:BassG] [K:Dmaj][D]8 | [D]8 | [A]4 [D]2 [A]2 | [D]2 [A]6 | [D]8 | [E]8 | [D]4 [E]2 [D]2 | [A]8 |
[V:BassG] [K:Amaj][A]8 | [D]8 | [A]4 [D]2 [A]2 | [A]2 [E]6 | [A]8 | [D]8 | [A]4 [B]2 [A]2 | [A]8 |]
V:Bell transpose=-12 name="Bass Bell" sname="Bass Bell" " " 
%%MIDI program 15
%%MIDI vol 100
%%MIDI nobeataccents
[V:Bell][K:Amaj] | A,,8- | A,,8 | A,,8- | A,,8 | $
[V:Bell][K:Amaj] [| A,,8- | A,,8 | A,,8- | A,,8 | A,,8- | A,,8 | A,,8- | Z |]
[V:Bell] X | X | X | X | X | X | X | X |]
[V:Bell] [K:Gmaj]"D,,8"X | X | X | X | X | X | X | X |
[V:Bell] [K:Abmaj]X | X | X | X | X | X | X | X |]
V:Guitar
%%MIDI program 30
%%MIDI vol 100
| Z | Z | Z | Z | $
[| Z | Z | Z | Z | Z | Z | Z | Z |]
[K:Amaj]A2 e2 e2 dc | dc B2 B2 AB | c2 Bc d2 cA | c2 B2 B2 z2 | A2 e2 e2 dc | dc B2 B2 AB | c2 Bc d2 cB | e4 z4 |]
[K:Dmaj]d2 a2 a2 gf | g f e2 e2 de | f2 e f g2 f d | f2 e6 | d2 a2 a2 gf | g f e2 e2 de | f2 e f g2 f d | d8 |
[K:Amaj]A2 e2 e2 dc | dc B2 B2 AB | c2 Bc d2 cA | c2 B2 B2 z2 | A2 e2 e2 dc | dc B2 B2 AB | c2 Bc d2 cB | A4 z4 |]
V:M
%%MIDI program 110
%%MIDI vol 70
| Z | Z | Z | Z | $
[| Z | Z | Z | Z | Z | Z | Z | Z |]
[K:Amaj]A2 e2 e2 dc | dc B2 B2 AB | c2 Bc d2 cA | c2 B2 B2 z2 | A2 e2 e2 dc | dc B2 B2 AB | c2 Bc d2 cB | e8 |]
[K:Dmaj]d2 a2 a2 gf | g f e2 e2 de | f2 e f g2 f d | f2 e6 | d2 a2 a2 gf | g f e2 e2 de | f2 e f g2 f d | d8 |
[K:Amaj]A2 e2 e2 dc | dc B2 B2 AB | c2 Bc d2 cA | c2 B2 B2 z2 | A2 e2 e2 dc | dc B2 B2 AB | c2 Bc d2 cB | A4 z4 |]
V:H
| X | X | X | X | $
[| X | X | X | X | X | X | X | X |
X | X | X | X | X | X | X | X |]
[| X | X | X | X | X | X | X | X |
X | X | X | X | X | X | X | X |]
V:C
| X | X | X | X | $
[| X | X | X | X | X | X | X | X |
X | X | X | X | X | X | X | X |]
[| X | X | X | X | X | X | X | X |
V:Drums 
%Midi Channel 10/11 designated for DRUMS
% 35 - Acoustic Bass    B0
% 38 - Acoustic Snare   D1
% 39 - Hand Clap        Eb1
% 41 - Floor Tom        F1
% 42 - Closed High hat  F#1
% 43 - High floor tom   G1
% 44 - Pedal High hat   Ab1
% 45 - Low Tom          A1
% 46 - Open hi hat      Bb1
% 47 - Low-mid tom      B1
% 48 - High-mid tom     C2
% 49 - Crash            C#2
% 50 - High Tom         D2
% 51 - Ride             D#2
% 53 - Ride Bell        F2
% 55 - Splash           G2
% 57 - Crash 2          A2
% 59 - Ride 2           B2
% 81 - Triangle         A4
L:1/8
             [V:Drums][^gF]^g ^g [^gF] [^gc] [^g_c] ^g [^gF] | [^gF]^g ^g^g ^g^g ^g^g | [^gF]^g ^g [^gF] [^gc] [^g_c] ^g [^gF] | [^gF]^g ^g^g ^g^g ^g^g |
[V:Drums] [| [^gF]^g          ^g [^gF] [^gc] [^g_c] ^g [^gF] | [^gF]^g ^g^g ^g^g ^g^g | [^gF]^g ^g [^gF] [^gc] [^g_c] ^g [^gF] | [^gF]^g ^g^g ^g^g ^g^g | [^gF]^g ^g [^gF] [^gc] [^g_c] ^g [^gF] | [^gF]^g ^g^g ^g^g ^g^g | [^gF]^g ^g [^gF] [^gc] [^g_c] ^g [^gF] | [^gF]^g      [ABD^g][ABD^g] [ACD^g][ACD^g] [ABD^g][ABD^g] |]  [^gF]^g ^g [^gF] [^gc] [^g_c] ^g [^gF] | [^gF]^g ^g^g [^gc]^g ^g^g | [^gF]^g ^g [^gF] [^gc] [^g_c] ^g [^gF] | [^gF]^g ^g^g [^gc]^g ^g^g | [^gF]^g ^g [^gF] [^gc] [^g_c] ^g [^gF] | [^gF]^g ^g^g [^gc]^g ^g^g | [^gF]^g ^g [^gF] [^gc] [^g_c] ^g [^gF] | "Fills"[^gF]^g ^g^g [^gc]^g ^g^g |
             [V:Drums][^gF]^g ^g [^gF] [^gc] [^g_c] ^g [^gF] | [^gF]^g ^g^g [^gc]^g ^g^g | [^gF]^g ^g [^gF] [^gc] [^g_c] ^g [^gF] | [^gF]^g ^g^g [^gc]^g ^g^g | [^gF]^g ^g [^gF] [^gc] [^g_c] ^g [^gF] | [^gF]^g ^g^g [^gc]^g ^g^g | [^gF]^g ^g [^gF] [^gc] [^g_c] ^g [^gF] | [^gF]^g      [^gBC][^gBC] [^gBC][^gBC] [^gBC][^gBC] |  [^gF]^g ^g [^gF] [^gc] [^g_c] ^g [^gF] | [^gF]^g ^g^g [^gc]^g ^g^g | [^gF]^g ^g [^gF] [^gc] [^g_c] ^g [^gF] | [^gF]^g ^g^g [^gc]^g ^g^g | [^gF]^g ^g [^gF] [^gc] [^g_c] ^g [^gF] | [^gF]^g ^g^g [^gc]^g ^g^g | [^gF]^g ^g [^gF] [^gc] [^g_c] ^g [^gF] | [^gF]^g [^gBC][^gBC] [^gBC][^gBC] ^g^g |]

